**kern
*clefF4
*k[]
*M4/4
=1
1F 1B 1d
=2
1C 1E-X 1c 1c
=3||
1GG 1D 1F 1B
=4
1CC 1C 1E 1c
=5||
1F 1G 1B 1d
=6
1E 1G#X 1c#X 1c#
=7||
1DD 1GG 1BB 1F
=8
1CC#X 1GG#X 1C#X 1E#X
=9||
1FF 1GG 1D 1B
=10
1FF 1AA 1D 1A
=11||
1GG 1BB 1D 1F
=12
1FF#X 1AA 1D 1F#X
=13||
1GG 1F 1B 1d
!!linebreak:original
=14
1GG-X 1E-X 1B-X 1e-X
=15||
1D 1G 1B 1f
=16
1E-X 1G 1B-X 1e-X
=17||
1GG 1F 1B 1d
=18
1GG 1E 1B 1e
=19||
1GG 1F 1B 1d
=20
1GG#X 1E 1B 1e
=21||
1FF 1D 1G 1B
=22
1FF 1C 1A-X 1c
=23||
1GG 1BB 1F 1d
=24
1AA 1C 1F 1c
=25||
1FF 1BB 1D 1G
=26
1FF#X 1AA 1C#X 1F#X
=27||
1FF 1D 1G 1B
=28
1FF#X 1C#X 1F#X 1A#X
!!linebreak:original
=29||
1BB 1D 1F 1G
=30
1C-X 1E-X 1E- 1A-X
=31||
1GG 1F 1B 1d
=32
1AA-X 1E-X 1c 1c
=33||
1GG 1D 1F 1B
=34
1AA 1C 1E 1c
=35||
1GG 1F 1B 1d
=36
1AA 1E 1A 1c#X
=37||
1GG 1D 1F 1B
=38
1FF#X 1D 1F#X 1B
=39||
1D 1G 1B 1f
=40
1D#X 1F#X 1B 1f
==
*-
!!!system-decoration: [(s1
